!!!COM: Haydn, Franz Joseph
!!!OTL: String Quartet in E Major
!!!OPS: Opus 17
!!!ONM: No. 1
!!!OMD: Presto
!!!OMV: 1
!!!SCT: H III:25
!!!SCA: Thematisch-bibliographisches Werkevererzeichnis (A. van Hoboken)
!!!YOR: Trautwein Edition
!!!ENC: Frances Bennion
!!!CDT: 1732/3/31/-1809/5/31/
!!!CNT: Oesterreich
!!!YEC: Copyright (c) 1994, 2000 Center for Computer Assisted Research in the Humanities
!!!YEM: Rights to all derivative editions reserved.
!!!YEM: Refer to licensing agreement for further details.
!!!YEN: United States of America
**kern	**kern	**kern	**kern
*k[f#c#g#d#]	*k[f#c#g#d#]	*k[f#c#g#d#]	*k[f#c#g#d#]
*E:	*E:	*E:	*E:
*clefF4	*clefC3	*clefG	*clefG
*M4/4	*M4/4	*M4/4	*M4/4
*MM152	*MM152	*MM152	*MM152
2..r	2..r	2..r	2..r
8r	8r	8r	8g#
=1	=1	=1	=1
4EE	4E	4B	8g#
.	.	.	8b
4BB	4A	4d#	8a
.	.	.	8f#
4E	4G#	4e	4e
4r	4r	4r	8r
.	.	.	8g#
=2	=2	=2	=2
4C#	4E	4e	8a
.	.	.	8b
4AA	4A	4c#	8cc#
.	.	.	8e
4BB	4F#	4B	4d#
4r	4r	4r	8r
.	.	.	8B
=3	=3	=3	=3
4D#	4F#	4B	8f#
.	.	.	8a
4E	4G#	4B	8g#
.	.	.	8e
4AA	4A	4e	8cc#
.	.	.	4cc#
4A	4c#	4e	.
.	.	.	16dd#
.	.	.	16ee
=4	=4	=4	=4
4G#	4G#	4e	8b
.	.	.	16dd#
.	.	.	16ee
4G#	4G#	4e	8b
.	.	.	16dd#
.	.	.	16ee
2G#	2B	[2e	8b
.	.	.	8b
.	.	.	8b
.	.	.	16a
.	.	.	16g#
=5	=5	=5	=5
4A	4c#	1e_	8f#
.	.	.	4f#
4B	4B	.	.
.	.	.	8f#
4.c#	4.A	.	8.f#
.	.	.	16g#
.	.	.	8a
8B	8B	.	8g#
=6	=6	=6	=6
4A#	4c#	4e]	8f#
.	.	.	4f#
4B	4B	4d#	.
.	.	.	16a
.	.	.	16g#
4E	4E	4e	4e
4r	4r	4r	8r
.	.	.	8e
=7	=7	=7	=7
4EE	4E	4B	8g#
.	.	.	8b
4BB	4A	4d#	8a
.	.	.	8f#
4E	4G#	4e	4e
4r	4r	4r	8r
.	.	.	8e
=8	=8	=8	=8
2r	2r	2r	8g#
.	.	.	8cc#
.	.	.	8ee
.	.	.	8gg#
[2G#	2d#	[2f#	4cc#
.	.	.	8b#
.	.	.	8ff#
=9	=9	=9	=9
2G#]	4.B#	4.f#]	8dd#
.	.	.	8b#
.	.	.	8g#
.	8G#	8d#	8f#
2C#	2G#	4d#	4f#
.	.	8c#	8e
.	.	8r	8g#
=10	=10	=10	=10
2r	2r	2r	8b#
.	.	.	8cc#
.	.	.	8ee
.	.	.	8gg#
[2F#	4.c#	[2e	4b
.	.	.	8a#
.	8F#	.	8ee
=11	=11	=11	=11
1F#_	8A#	4.e]	8cc#
.	8c#	.	8a#
.	8e	.	8f#
.	8c#	8e	8a#
.	4c#	4e	4a#
.	8d#	4d#	8b
.	8F#	.	8ff#
=12	=12	=12	=12
1F#_	8B	4.f#	8dd#
.	8d#	.	8b
.	8f#	.	8f#
.	8d#	8f#	8b#
.	4d#	4f#	4b#
.	8e	4e	8cc#
.	8F#	.	8gg#
=13	=13	=13	=13
4.F#]	8A#	2e	8ee
.	8c#	.	8cc#
.	8e	.	8a#
8E	8E	.	8e
4D#	8D#	8d#	8d#
.	4f#	4b	4b
4D#	.	.	.
.	[8f#	[8a	[8b
=14	=14	=14	=14
4E	8f#]	8a]	8b]
.	4e	4g#	4b
4F#	.	.	.
.	4d#	4f#	4b
4G#	.	.	.
.	4B	4e	4b
4F#	.	.	.
.	8B	8d#	8b
=15	=15	=15	=15
8F##	8d#	8c#	8b
8F##	8d#	8c#	8a#
8F##	8d#	8c#	8a#
8F##	8d#	8c#	8a#
8F##	8d#	8c#	4.a#
8F##	8d#	8c#	.
8F##	8d#	8c#	.
8F##	8d#	8c#	16b#
.	.	.	16cc#
=16	=16	=16	=16
8F#	8G#	8d#	8cc#
8F#	8G#	8d#	8b#
8F#	8G#	8d#	8b#
8F#	8G#	8d#	8b#
8F#	8G#	8d#	4.b#
8F#	8G#	8d#	.
8F#	8G#	8d#	.
8F#	8G#	8d#	16cc#
.	.	.	16dd#
=17	=17	=17	=17
2E	8G#	8G#	8dd#
.	8G#	8G#	8cc#
.	8G#	8G#	8cc#
.	8G#	8G#	8cc#
4.E	8G#	4G#	8cc#
.	8G#	.	8gg#
.	8G#	[4c#	16ff#
.	.	.	16ee
8E#	8G#	.	16dd#
.	.	.	16cc#
=18	=18	=18	=18
8F#	8F#	8c#]	4b
8F#	8F#	8c#	.
8F#	8F#	8c#	16a#
.	.	.	16f#
4r	4r	4r	8f#
.	.	.	[6..cc#
8F#	8f#	8A#	.
8F#	8f#	8A#	.
.	.	.	48cc#]
.	.	.	16f#
8r	8r	8r	8f#
=19	=19	=19	=19
8r	8r	8r	16ee
.	.	.	16cc#
8F#	8c#	8a#	8cc#
8r	8r	8r	16aa#
.	.	.	16ff#
8F#	8c#	8a#	8ff#
8r	8r	8r	16ccc#
.	.	.	16aa#
8F#	8c#	8a#	8aa#
8r	8r	8r	[4eee
8F#	8c#	8a#	.
=20	=20	=20	=20
4F#	4c#	4a#	8eee]
.	.	.	8ddd#
2.r	2r	2.r	8ccc#
.	.	.	8bb
.	.	.	8aa#
.	.	.	8gg#
.	8r	.	8ff#
.	8g#	.	8ee
=21	=21	=21	=21
2..r	8f#	8r	8dd#
.	8e	8g#	8cc#
.	8d#	8f#	8b
.	8c#	8e	8a#
.	8B	8d#	8g#
.	8A#	8c#	8f#
.	[4B	[4d	4e#
8G	.	.	.
=22	=22	=22	=22
4.F#	8B]	8d]	4.f#
.	8A#	8c#	.
.	8c#	8e	.
8G	4B	4d	8e#
4.F#	.	.	4.f#
.	8A#	8c#	.
.	8c#	8e	.
8G	[8B	[8d	8e#
=23	=23	=23	=23
[1F#	8B]	8d]	[3..f#
.	8A#	8c#	.
.	8B	8d#	.
.	8c#	8e	.
.	[2F#	8f#	.
.	.	.	24f#]
.	.	8B	8d#
.	.	8c#	8e
.	.	8d#	8f#
=24	=24	=24	=24
2F#]	2F#]	8e	8g#
.	.	8c#	8a#
.	.	8d#	8b
.	.	8A#	8cc#
4.F#	4.F#	8B	8dd#
.	.	8A#	8cc#
.	.	8B	8dd#
8E	8A#	8c#	8ee
=25	=25	=25	=25
4D#	4F#	4B	16ee#
.	.	.	16ff#
.	.	.	16dd#
.	.	.	16b
8r	8r	8r	16a#
.	.	.	16f#
8F#	8A# 8F#	8c#	16ee
.	.	.	16cc#
4D#	4B 4F#	4B	16ee#
.	.	.	16ff#
.	.	.	16dd#
.	.	.	16b
8r	8r	8r	16a#
.	.	.	16f#
8F#	8A# 8F#	8c#	16ee
.	.	.	16cc#
=26	=26	=26	=26
8D#	8B 8F#	8B	16ee#
.	.	.	16ff#
8r	8r	8r	16dd#
.	.	.	16b
8D#	8B	8f#	16aa#
.	.	.	16bb
8r	8r	8r	16b
.	.	.	16aa
8E	8e	8B	16ff##
.	.	.	16gg#
8r	8r	8r	16e
.	.	.	16ee
8E	8e	8b	16gg#
.	.	.	16ee
8E	8c#	8f#	16ccc#
.	.	.	16aa#
=27	=27	=27	=27
8D#	8d#	2f#	8bb
8AA#	8A#	.	8ccc#
8BB	8B	.	8ddd#
8C#	8c#	.	8eee
4D#	8d#	4B	8fff#
.	8b	.	8ggg#
8D#	8b	8ff#	8aaa
8D#	8b	8ff#	8aaa
=28	=28	=28	=28
[2D#	[2b	[2ff#	2.aaa
4D#]	4b]	4ff#]	.
4r	4r	4r	4r
=29	=29	=29	=29
1r	1r	8.ee	8.gg#
.	.	16dd#	16ff##
.	.	16ee	16gg#
.	.	16dd#	16ff##
.	.	16ee	16gg#
.	.	16dd#	16ff##
.	.	8ee	8gg#
.	.	8ee	8gg#
.	.	8dd#	8ff#
.	.	8cc#	8ee
=30	=30	=30	=30
8F#	8f#	16b	16dd#
.	.	8.dd#	8.ff#
8F#	8f#	.	.
8F#	8f#	8dd#	8ff#
8F#	8f#	8b	32ee
.	.	.	32dd#
.	.	.	32cc#
.	.	.	32b
8F#	8f#	8b	2cc#
8F#	8f#	8b	.
8F#	8e	8a#	.
8F#	8e	8a#	.
=31	=31	=31	=31
4D#	4d#	4B	24ff#
.	.	.	24gg#
.	.	.	24ff#
.	.	.	24dd#
.	.	.	24cc#
.	.	.	24b
8r	8r	8r	24a#
.	.	.	24g#
.	.	.	24f#
8F#	8A# 8F#	8c#	24ee
.	.	.	24dd#
.	.	.	24cc#
4D#	4B 4F#	4B	24ff#
.	.	.	24gg#
.	.	.	24ff#
.	.	.	24dd#
.	.	.	24cc#
.	.	.	24b
8r	8r	8r	24a#
.	.	.	24g#
.	.	.	24f#
8F#	8A# 8F#	8c#	24ee
.	.	.	24dd#
.	.	.	24cc#
=32	=32	=32	=32
8D#	8B 8F#	8B	24ff#
.	.	.	24gg#
.	.	.	24ff#
8r	8r	8r	24dd#
.	.	.	24cc#
.	.	.	24b
8D#	8B	8f#	24bb
.	.	.	24aa#
.	.	.	24bb
8r	8r	8r	24ff#
.	.	.	24gg#
.	.	.	24aa
8E	8B	8g#	24gg#
.	.	.	24ff#
.	.	.	24gg#
8r	8r	8r	24g#
.	.	.	24f#
.	.	.	24e
8E	8e	8b	24gg#
.	.	.	24ff#
.	.	.	24ee
8E	8c#	8f#	24eee
.	.	.	24ccc#
.	.	.	24aa#
=33	=33	=33	=33
8D#	8d#	2f#	24bb
.	.	.	24bb
.	.	.	24bb
8AA#	8e	.	24ccc#
.	.	.	24ccc#
.	.	.	24ccc#
8BB	8d#	.	24ddd#
.	.	.	24ddd#
.	.	.	24ddd#
8C#	8c#	.	24eee
.	.	.	24eee
.	.	.	24eee
4D#	8B	4B	24fff#
.	.	.	24fff#
.	.	.	24fff#
.	8b	.	24ggg#
.	.	.	24ggg#
.	.	.	24ggg#
8D#	8cc	8ff#	24aaa
.	.	.	24aaa
.	.	.	24aaa
8D#	8cc	8ff#	24aaa
.	.	.	24aaa
.	.	.	24aaa
=34	=34	=34	=34
[2D#	[2cc	[2ff#	2.aaa
4D#]	4cc]	4ff#]	.
4r	4r	4r	4r
=35	=35	=35	=35
1r	1r	8.ee	8.gg#
.	.	16dd#	16ff##
.	.	16ee	16gg#
.	.	16dd#	16ff##
.	.	16ee	16gg#
.	.	16dd#	16ff##
.	.	8ee	8gg#
.	.	8ee	8gg#
.	.	8dd#	8ff#
.	.	8cc#	8ee
=36	=36	=36	=36
8F#	2f#	2b	2dd#
8F#	.	.	.
8F#	.	.	.
8F#	.	.	.
8F##	2e	2a#	2cc#
8F##	.	.	.
8F##	.	.	.
8F##	.	.	.
=37	=37	=37	=37
2G#	4d#	8f#	2b#
.	.	8g#	.
.	2g#	8a	.
.	.	8f#	.
2C#	.	2e#	8b
.	.	.	8cc#
.	[4c#	.	8dd#
.	.	.	8b
=38	=38	=38	=38
2F#	4c#]	8e	2a#
.	.	8f#	.
.	2f#	8g#	.
.	.	8e	.
2BB	.	2d#	8a
.	.	.	8b
.	4f#	.	8cc#
.	.	.	8a
=39	=39	=39	=39
8E	8e	8e	[4g#
8EE	8e	8gg# 8b	.
4EE	4e	4gg# 4b	32g#]
.	.	.	32a
.	.	.	32b
.	.	.	32cc#
.	.	.	32dd#
.	.	.	32ee
.	.	.	32ff#
.	.	.	64gg#
.	.	.	64aa#
2r	2r	2r	4bb
.	.	.	16aa#
.	.	.	16gg#
.	.	.	16ff#
.	.	.	16ee
=40	=40	=40	=40
8F#	8f#	16b	16dd#
.	.	8.dd#	8.ff#
8F#	8f#	.	.
8F#	8f#	8dd#	8ff#
8F#	8f#	8b	32ee
.	.	.	32dd#
.	.	.	32cc#
.	.	.	32b
8F#	8f#	8b	2cc#
8F#	8f#	8b	.
8F#	8f#	8a#	.
8F#	8A#	8e	.
=41	=41	=41	=41
[1BB	8B	8d#	4.b
.	8c#	8e	.
.	8d#	8f#	.
.	8f#	8a	8dd#
.	4.e	4.g#	8ee
.	.	.	8ff#
.	.	.	8gg#
.	8c#	8e	8a#
=42	=42	=42	=42
1BB_	8B	8d#	4.b
.	8c#	8e	.
.	8d#	8f#	.
.	8f#	8a	8d#
.	4.e	4.g#	8e
.	.	.	8f#
.	.	.	8g#
.	8c#	8e	8A#
=43	=43	=43	=43
2BB_	2c#	2e	2A#
4BB]	4B	4d#	4B
8r	4r	4r	4r
8BB	.	.	.
=44	=44	=44	=44
8B	2..r	2r	3..r
8c#	.	.	.
8d	.	.	.
8F#	.	.	.
4E#	.	8r	.
.	.	.	24r
.	.	8bb	8ddd
4r	.	8aa	8ccc#
.	8c#	8gg#	8bb
=45	=45	=45	=45
2..r	8f#	4ff#	4aa
.	8g#	.	.
.	8a	4.r	4.r
.	8c#	.	.
.	4B#	.	.
.	.	8ff#	8aa
.	4r	8ee	8gg#
8G#	.	8dd#	8ff#
=46	=46	=46	=46
8c#	2..r	4cc#	4ee
8d#	.	.	.
8e	.	4.r	4.r
8G#	.	.	.
4F##	.	.	.
.	.	8cc#	8ee
8r	.	8b	8dd#
8F##	8d#	8a#	8cc#
=47	=47	=47	=47
8G#	8d#	8b	8b
8G#	8d#	8b	16ff##
.	.	.	16gg#
8G#	8d#	8b	4.dd#
8G#	8d#	8b	.
8G#	8d#	8b	.
8G#	8d#	8b	16aa#
.	.	.	16bb
8G#	8d#	8b	[4dd#
8G#	8d#	8b	.
=48	=48	=48	=48
8F##	8d#	8a#	8dd#]
8F##	8d#	8a#	16ccc##
.	.	.	16ddd#
8F##	8d#	8a#	4.dd#
8F##	8d#	8a#	.
8F##	8d#	8a#	.
8F##	8d#	8a#	8ccc#
8F##	8d#	8dd#	8bb
8F##	8d#	8dd#	8aa#
=49	=49	=49	=49
8G#	8B	8d#	4.bb
8G#	8B	8d#	.
8G#	8B	8d#	.
8G#	8B	8d#	8aa#
8G#	8B	8e	8gg#
8G#	8B	8e	8ff#
8G#	8B	8e	8ee
8G#	8B	8e	8dd#
=50	=50	=50	=50
8G#	8A#	8e#	8dd#
8G#	8A#	8e#	8cc##
8G#	8A#	8e#	4.cc##
8G#	8A#	8e#	.
8G#	8A#	8e#	.
8G#	8A#	8e#	8bb
8G#	8A#	8e#	8aa#
8G#	8A#	8e#	8cc##
=51	=51	=51	=51
8F#	8A#	8A#	8ee#
8F#	8A#	8A#	8dd#
8F#	8A#	8A#	4.dd#
8F#	8A#	8A#	.
8F#	8A#	8A#	.
8F#	8A#	8A#	8ff#
8F#	8A#	8A#	8dd#
8F#	8A#	8A#	8cc#
=52	=52	=52	=52
8F#	8G#	8d#	8cc#
8F#	8G#	8d#	8b#
8F#	8G#	8d#	4.b#
8F#	8G#	8d#	.
8F#	8G#	8d#	.
8F#	8G#	8d#	8dd#
8F#	8G#	8d#	8gg#
8F#	8G#	8d#	8b#
=53	=53	=53	=53
8E	8G#	8c#	8dd#
8E	8G#	8c#	8cc#
8E	8G#	8c#	4.cc#
8E	8G#	8c#	.
8E	8e	8g#	.
8E	8e	8g#	8cc#
8E	8e	8g#	8dd#
8E	8e	8g#	8ee
=54	=54	=54	=54
8BB#	8f#	8g#	8ee
8BB#	8f#	8g#	8dd#
8BB#	8f#	8g#	4.dd#
8BB#	8f#	8g#	.
8BB#	8d#	8g#	.
8BB#	8d#	8g#	8dd#
8BB#	8d#	8g#	8ee
8BB#	8d#	8g#	8ff#
=55	=55	=55	=55
4C#	4c#	4g#	24ee
.	.	.	24gg#
.	.	.	24ff#
.	.	.	24ee
.	.	.	24dd#
.	.	.	24cc#
8r	8r	8r	24b#
.	.	.	24a#
.	.	.	24g#
8BB#	8d#	8g#	24ff#
.	.	.	24ee
.	.	.	24dd#
4C#	4c#	4g#	24ee
.	.	.	24gg#
.	.	.	24ff#
.	.	.	24ee
.	.	.	24dd#
.	.	.	24cc#
8r	8r	8r	24b#
.	.	.	24a#
.	.	.	24g#
8B#	8d#	8g#	24ff#
.	.	.	24ee
.	.	.	24dd#
=56	=56	=56	=56
8c#	8c#	8g#	24ee
.	.	.	24gg#
.	.	.	24ff#
8r	8r	8r	24ee
.	.	.	24dd#
.	.	.	24ee
8E	8c#	8g#	24ccc#
.	.	.	24bb
.	.	.	24ccc#
8r	8r	8r	24cc#
.	.	.	24gg#
.	.	.	24bb
4F#	4c#	8f#	8aa
.	.	8aa	8fff#
4r	4r	8gg#	8eee
.	.	8ff#	8ddd#
=57	=57	=57	=57
8G#	8g#	4ee	2ccc#
8G#	8g#	.	.
8G#	8g#	2cc#	.
8G#	8g#	.	.
8G#	8f#	.	2ddd#
8G#	8f#	.	.
8G#	8f#	4b#	.
8G#	8f#	.	.
=58	=58	=58	=58
4A	4e	4cc#	4ccc#
8.A	8.a	8.ee	8.a 8.ccc#
16A	16a	16ee	16ccc# 16a
4A	4a	4ee	4a 4ccc#
4r	4r	4r	4r
=59	=59	=59	=59
4FF##	4A#	4c#	4e
8.FF##	8.A#	8.c#	8.e
16FF##	16A#	16c#	16e
4FF##	4A#	4c#	4e
4r	4r	4r	4r
=60	=60	=60	=60
1GG#	2E	2c#	2e
.	2E#	2B	2d
=61	=61	=61	=61
1AA	[1F#	[1A	8c#
.	.	.	8e#
.	.	.	8f#
.	.	.	8b#
.	.	.	8cc#
.	.	.	8g#
.	.	.	8a
.	.	.	8f#
=62	=62	=62	=62
[2BB	2F#_	2A_	2e
4BB]	4F#]	4A]	4d#
4r	4r	4r	8r
.	.	.	8e
=63	=63	=63	=63
4EE	4E	4B	8g#
.	.	.	8b
4BB	4A	4d#	8a
.	.	.	8f#
4E	4G#	4e	4e
8r	4r	8r	8r
8e	.	8gg#	8gg#
=64	=64	=64	=64
8c#	4.r	8ee	8aa
8B	.	8dd#	8bb
8A	.	8cc#	8ccc#
8G#	8e	8b	8ee
8F#	8f#	8a	4dd#
8E	8g#	8g#	.
8D#	8a	8f#	8r
8d#	8A	8ff#	8dd#
=65	=65	=65	=65
8B	4B	8dd#	8gg#
8A	.	8cc#	8aa
8G#	8r	8b	8bb
8F#	8d#	8a	8dd#
8E	8e	8g#	4cc#
8D#	8f#	8f#	.
8C#	8g#	8e	8r
8c#	8G#	8ee	8cc#
=66	=66	=66	=66
8A	4A	8cc#	8ff#
8G#	.	8b	8gg#
8F#	8r	8a	8aa
8E	8c#	8g#	8cc#
8D#	8d#	8f#	4b
8C#	8e	8e	.
8BB	8f#	8d#	8r
8B	8F#	8dd#	8b
=67	=67	=67	=67
8G#	4G#	8b	8ee
8F#	.	8a	8ff#
8E	2r	8g#	8gg#
8A	.	8cc#	8a
8F#	.	8a	8dd#
8E	.	8g#	8ee
8D#	4b	8f#	8ff#
8B	.	8dd#	8b
=68	=68	=68	=68
8c#	1cc#	1ee	8ee
8d#	.	.	8ff#
8e	.	.	8gg#
8G#	.	.	8gg#
8A	.	.	[2ff#
8B	.	.	.
8c#	.	.	.
8A#	.	.	.
=69	=69	=69	=69
8B	1b	1dd#	2ff#]
8c#	.	.	.
8d#	.	.	.
8F#	.	.	.
8G#	.	.	[2ee
8A	.	.	.
8B	.	.	.
8G#	.	.	.
=70	=70	=70	=70
8A	1a	1cc#	2ee]
8B	.	.	.
8c#	.	.	.
8E	.	.	.
8F#	.	.	[2dd#
8G#	.	.	.
8A	.	.	.
8F#	.	.	.
=71	=71	=71	=71
8G#	1g#	1b	2dd#]
8A	.	.	.
8B	.	.	.
8D#	.	.	.
8E	.	.	[2cc#
8F#	.	.	.
8G#	.	.	.
8C#	.	.	.
=72	=72	=72	=72
8F#	1f#	1a	2cc#]
8G#	.	.	.
8A	.	.	.
8C#	.	.	.
8D#	.	.	[2b
8E	.	.	.
8F#	.	.	.
8D#	.	.	.
=73	=73	=73	=73
8E	2e	2.g	2b]
8F#	.	.	.
8G	.	.	.
8E	.	.	.
8C	2g	.	[2ee
8D#	.	.	.
8E	.	4cc	.
8C	.	.	.
=74	=74	=74	=74
8AA	[1a	1cc	2ee]
8BB	.	.	.
8C	.	.	.
8AA	.	.	.
8FF#	.	.	4dd#
8AA	.	.	.
8EE	.	.	4ee
8AA	.	.	.
=75	=75	=75	=75
4DD#	4a]	4b	4ff#
8.DD#	8.B	8.ff# 8.b	8.aa 8.b
16DD#	16B	16ff# 16b	16aa 16b
4DD#	4B	4ff# 4b	4aa 4b
4r	4r	4r	8r
.	.	.	8e
=76	=76	=76	=76
4EE	4E	4B	8g#
.	.	.	8b
4BB	4A	4d#	8a
.	.	.	8f#
4E	4G#	4e	4e
4r	4r	4r	8r
.	.	.	8e
=77	=77	=77	=77
4C#	4E	4e	8a
.	.	.	8b
4AA	4A	4c#	8cc#
.	.	.	8e
4BB	4F#	4B	4d#
4r	4r	4r	8r
.	.	.	8B
=78	=78	=78	=78
4D#	4F#	4B	8f#
.	.	.	8a
4E	4G#	4B	8g#
.	.	.	8e
4AA	4A	4e	8cc#
.	.	.	4cc#
4A	4c#	4e	.
.	.	.	16dd#
.	.	.	16ee
=79	=79	=79	=79
4G#	4G#	4e	8b
.	.	.	16dd#
.	.	.	16ee
4G#	4G#	4e	8b
.	.	.	16dd#
.	.	.	16ee
2G#	2B	[2e	8b
.	.	.	8b
.	.	.	8b
.	.	.	16a
.	.	.	16g#
=80	=80	=80	=80
4A	4c#	1e_	8f#
.	.	.	4f#
4B	4B	.	.
.	.	.	8f#
4.c#	4.A	.	8.f#
.	.	.	16g#
.	.	.	8a
8B	8B	.	8g#
=81	=81	=81	=81
4A#	4c#	4e]	8f#
.	.	.	4f#
4B	4B	4d#	.
.	.	.	16a
.	.	.	16g#
4E	4E	4e	4e
4r	4r	4r	8r
.	.	.	16b
.	.	.	16g#
=82	=82	=82	=82
4A	4c#	[1e	8f#
.	.	.	4f#
4B	4B	.	.
.	.	.	8f#
4.c#	4.A	.	8.f#
.	.	.	16g#
.	.	.	8a
8B	8B	.	8g#
=83	=83	=83	=83
4A#	4c#	4e]	8f#
.	.	.	4f#
4B	2B	2d	.
.	.	.	4b
4G#	.	.	.
.	.	.	4e
4A	4A	4c#	.
.	.	.	[8cc#
=84	=84	=84	=84
4.AA	4c#	4e	8cc#]
.	.	.	16b
.	.	.	16a
.	2.r	2.r	16g#
.	.	.	16f#
2r	.	.	16e#
.	.	.	16f#
.	.	.	16e#
.	.	.	16f#
.	.	.	16e#
.	.	.	16f#
.	.	.	8c#
8r	.	.	8f#
=85	=85	=85	=85
8r	8r	8r	4e
8BB	8F#	8A	.
8BB	8F#	8A	16d#
.	.	.	16B
4r	4r	4r	8B
.	.	.	[6..f#
8BB	8A	8d#	.
8BB	8A	8d#	.
.	.	.	48f#]
.	.	.	16B
8r	8r	8r	8B
=86	=86	=86	=86
8r	8r	8r	16a
.	.	.	16f#
8BB	8f#	8d#	8f#
8r	8r	8r	16dd#
.	.	.	16b
8BB	8f#	8d#	8b
8r	8r	8r	16ff#
.	.	.	16dd#
8BB	8f#	8d#	8dd#
8r	8r	8r	[4aa
8BB	8f#	8d#	.
=87	=87	=87	=87
4BB	4f#	4d#	8aa]
.	.	.	8gg#
2.r	2r	2.r	8ff#
.	.	.	8ee
.	.	.	8dd#
.	.	.	8ccc#
.	8r	.	8bb
.	8cc#	.	8aa
=88	=88	=88	=88
2..r	8b	8r	8gg#
.	8a	8cc#	8ff#
.	8g#	8b	8ee
.	8f#	8a	8dd#
.	8e	8g#	8cc#
.	8d#	8f#	8b
.	[4e	[4g	4a#
8c	.	.	.
=89	=89	=89	=89
4.B	8e]	8g]	4.b
.	8d#	8f#	.
.	8f#	8a	.
8c	4e	4g	8a#
4.B	.	.	4.b
.	8d#	8f#	.
.	8f#	8a	.
8c	[8e	[8g	8a#
=90	=90	=90	=90
[1B	8e]	8g]	[3..b
.	8d#	8f#	.
.	8e	8g#	.
.	8f#	8a	.
.	[2B	8b	.
.	.	.	24b]
.	.	8e	8g#
.	.	8f#	8a
.	.	8g#	8b
=91	=91	=91	=91
2B]	2B]	8a	8cc#
.	.	8f#	8dd#
.	.	8g#	8ee
.	.	8d#	8ff#
4.B	4.B	8e	8gg#
.	.	8d#	8ff#
.	.	8e	8gg#
8A	8d#	8f#	8aa
=92	=92	=92	=92
4G#	4B	4g#	16aa#
.	.	.	16bb
.	.	.	16gg#
.	.	.	16ee
8r	8r	8r	16dd#
.	.	.	16b
8B	8B 8D#	8f#	16aa
.	.	.	16ff#
4G#	4B 4E	4e	16aa#
.	.	.	16bb
.	.	.	16gg#
.	.	.	16ee
8r	8r	8r	16dd#
.	.	.	16b
8B	8B 8D#	8f#	16aa
.	.	.	16ff#
=93	=93	=93	=93
8G#	8E 8B	8e	16aa#
.	.	.	16bb
8r	8r	8r	16gg#
.	.	.	16ee
8G#	8e	8b	16dd#
.	.	.	16ee
8r	8r	8r	16dd
.	.	.	16b
8A	8e	8a	16b#
.	.	.	16cc#
8r	8r	8r	16A
.	.	.	16a
8A	8A	8e	16cc#
.	.	.	16a
8A	8F#	8B	16ff#
.	.	.	16dd#
=94	=94	=94	=94
8G#	8G#	2b	8ee
8D#	8d#	.	8ff#
8E	8e	.	8gg#
8F#	8f#	.	8aa
4G#	8g#	4e	8bb
.	8f#	.	8ccc#
8G#	8e	8bb	8ddd
8G#	8e	8bb	8ddd
=95	=95	=95	=95
[2G#	[2e	[2bb	[2ddd
4G#]	4e]	4bb]	4ddd]
4r	4r	4r	4r
=96	=96	=96	=96
1r	1r	8.aa	8.ccc#
.	.	16gg#	16bb#
.	.	16aa	16ccc#
.	.	16gg#	16bb#
.	.	16aa	16ccc#
.	.	16gg#	16bb#
.	.	8aa	8ccc#
.	.	8aa	8ccc#
.	.	8gg#	8bb
.	.	8ff#	8aa
=97	=97	=97	=97
8B	8B	16ee	16gg#
.	.	8.gg#	8.bb
8B	8B	.	.
8B	8B	8gg#	8bb
8B	8B	8ee	32aa
.	.	.	32gg#
.	.	.	32ff#
.	.	.	32ee
8B	8B	8ee	2ff#
8B	8B	8ee	.
8B	8A	8dd#	.
8B	8A	8dd#	.
=98	=98	=98	=98
4E	4G#	4ee	24gg#
.	.	.	24bb
.	.	.	24aa
.	.	.	24gg#
.	.	.	24ff#
.	.	.	24ee
8r	8r	8r	24dd#
.	.	.	24cc#
.	.	.	24b
8BB	8f#	8dd#	24aa
.	.	.	24gg#
.	.	.	24ff#
4E	4e	4ee	24gg#
.	.	.	24bb
.	.	.	24aa
.	.	.	24gg#
.	.	.	24ff#
.	.	.	24ee
8r	8r	8r	24dd#
.	.	.	24cc#
.	.	.	24b
8BB	8f#	8dd#	24aa
.	.	.	24gg#
.	.	.	24ff#
=99	=99	=99	=99
8E	4e	8ee	24gg#
.	.	.	24bb
.	.	.	24aa
8r	.	8r	24gg#
.	.	.	24ff#
.	.	.	24ee
8G#	8r	8e	24dd
.	.	.	24ff#
.	.	.	24ee
8r	8B	8r	24dd
.	.	.	24cc#
.	.	.	24b
8A	8c#	8e	24cc#
.	.	.	24b
.	.	.	24cc#
8r	8r	8r	24c#
.	.	.	24B
.	.	.	24A
8A	8a	8e	24cc#
.	.	.	24b
.	.	.	24a
8A	8f#	8b	24aa
.	.	.	24ff#
.	.	.	24dd#
=100	=100	=100	=100
8G#	8g#	2b	24ee
.	.	.	24ee
.	.	.	24ee
8D#	8a	.	24ff#
.	.	.	24ff#
.	.	.	24ff#
8E	8g#	.	24gg#
.	.	.	24gg#
.	.	.	24gg#
8F#	8f#	.	24aa
.	.	.	24aa
.	.	.	24aa
4G#	4e	4e	24bb
.	.	.	24bb
.	.	.	24bb
.	.	.	24ccc#
.	.	.	24ccc#
.	.	.	24ccc#
8G#	8f	8bb	24ddd
.	.	.	24ddd
.	.	.	24ddd
8G#	8f	8bb	24ddd
.	.	.	24ddd
.	.	.	24ddd
=101	=101	=101	=101
[2G#	[2f	[2bb	[2ddd
4G#]	4f]	4bb]	4ddd]
4r	4r	4r	4r
=102	=102	=102	=102
1r	1r	8.aa	8.ccc#
.	.	16gg#	16bb#
.	.	16aa	16ccc#
.	.	16gg#	16bb#
.	.	16aa	16ccc#
.	.	16gg#	16bb#
.	.	8aa	8ccc#
.	.	8aa	8ccc#
.	.	8gg#	8bb
.	.	8ff#	8aa
=103	=103	=103	=103
8B	2b	2ee	2gg#
8B	.	.	.
8B	.	.	.
8B	.	.	.
8B#	2a	2dd#	2ff#
8B#	.	.	.
8B#	.	.	.
8B#	.	.	.
=104	=104	=104	=104
2c#	4g#	8b	2ee#
.	.	8cc#	.
.	2cc#	8dd	.
.	.	8b	.
2F#	.	2a#	8ee
.	.	.	8ff#
.	[4f#	.	8gg#
.	.	.	8ee
=105	=105	=105	=105
2B	4f#]	8a	2dd#
.	.	8b	.
.	2b	8cc#	.
.	.	8a	.
2E	.	2g#	8dd
.	.	.	8ee
.	4b	.	8ff#
.	.	.	8dd
=106	=106	=106	=106
8A	8cc#	8a	[12..cc#
8AA	8a	8cc# 8e	.
.	.	.	96cc#]
.	.	.	32a
.	.	.	32b
.	.	.	32cc#
4AA	4a	4cc# 4e	32dd
.	.	.	32ee
.	.	.	32ff#
.	.	.	32gg#
.	.	.	32aa
.	.	.	32bb
.	.	.	32ccc#
.	.	.	32ddd#
2r	2r	2r	8eee
.	.	.	8ccc#
.	.	.	8bb
.	.	.	8aa
=107	=107	=107	=107
8BB	8B	16ee	16gg#
.	.	8.gg#	8.bb
8BB	8B	.	.
8BB	8B	8gg#	8bb
8BB	8B	8ee	32aa
.	.	.	32gg#
.	.	.	32ff#
.	.	.	32ee
8BB	8B	8ee	2ff#
8BB	8B	8ee	.
8BB	8B	8dd#	.
8BB	8d#	8a	.
=108	=108	=108	=108
1E	8e	8g#	4.ee
.	8f#	8a	.
.	8g#	8b	.
.	8b	8dd	8gg#
.	4.a	4.cc#	8aa
.	.	.	8bb
.	.	.	8ccc#
.	8F#	8A	8dd#
=109	=109	=109	=109
1EE	8E	8G#	4.ee
.	8F#	8A	.
.	8G#	8B	.
.	8B	8d	8g#
.	4.A	4.c#	8a
.	.	.	8b
.	.	.	8cc#
.	8F#	8A	8d#
=110	=110	=110	=110
[2EE	2F#	2A	2d#
4EE]	4E	4G#	4e
4r	4r	4r	4r
==	==	==	==
*-	*-	*-	*-
!!!RWG1: This file contains only pitch and duration data.
!!!RWG2: Transposing instruments are not transposed.
!!!RWG3: Spines may have incompatible meters.
!!!RWG4: Durations of rests and tied notes may be interpreted.
!!!RWG: Key is interpreted using the Humdrum key tool.
!!!GTL: 6 Divertimentos
!!!AFT: stage1
!!!END: 1997/04/15
!!!KEY: 2140772973
!!!EMD: Converted from MuseData to Humdrum Dec 16, 2000, by Andreas Kornstaedt using muse2kern.
!!!EMD: Manual editing by Craig Sapp, Nov 2001
